X:1
T:THE CUTTER
T:THE CUTTER
T:A CLASSY RAG.
T:ELMA NEY M   CLURE
T:Copyright, 1909, by Elma Ney Mc Clure.
T:Copyright, 1909, by Elma Ney Mc Clure.
T:Copyright, 1909, by Elma Ney Mc Clure.
T:Copyright, 1909, by Elma Ney Mc Clure.
C:ELMA NEY M  CLURE
Z:Copyright, 1909, by Elma Ney Mc Clure.
%%score { 1 | 2 }
L:1/8
Q:1/4=180
M:2/2
K:G
V:1 treble nm="Piano" snm="Pno."
V:2 bass 
V:1
!ff! g2 _ed- d^cde | d2 _BG z2 z2 | [=B,D]EGB z [^CG] [=CFA]2 | [B,DG]2- [B,DG]2"^c" z2 z2 |: %4
!mf! [dgbd'][egbe'][dgbd'][egbe']- [egbe'][dgbd'] [egbe']2 | Bb-ba gd B2 | %6
 [Begb][cegc'][Begb][cegc']- [cegc'][Begb] [cegc']2 | Ee-ed BG E2 | [DFB]E[Fc]D E[Fc]-[Fc]D | %9
 [Gd]ABG AB-BG | [^CGA]^GAe- e[F^d] [=GA^ce]2 | [A=cf][Ac=f]-[Acf][Ac^f] [Fcd]2 z2 | %12
 [dgbd'][egbe'][dgbd'][egbe']- [egbe'][dgbd'] [egbe']2 | Bb-ba gd B2 | %14
 [Begb][cegc'][Begb][cegc']- [cegc'][Begb] [cegc']2 | Ee-ed BG E2 | [DFB]E[Fc]D E[Fc]-[Fc]D | %17
 [Gd]ABG [^CA]B-BG | [B,G]ABG [^CA]B-B[=CF] |1 [B,G]2 ^CD- DGAB :|2 [B,DG]2- [B,DG]2 z4 |: %21
[K:Bb]!p! [dgbd']-[dgbd'] c'b- ba-ag | d-dcB- BA-AG | [Fd]2 GF- FGFG | DFB[^Fd]- [Fd]c [DFA]2 | %25
 [dgbd']-[dgbd'] c'b- ba-ag | d-dcB- BA-AG | [^CA]^GAB- BG [CA]2 | [D^F=cd]2- [DFcd]2 z2 z2 | %29
 [dgbd']-[dgbd'] c'b- ba-ag | d-dcB- BA-AG | [Fd]2 GF- FGFG | DFB[^Fd]- [Fd]c [DFA]2 | %33
 [Dd]GAB- BA G2 | [Gg]cde- ed c2 | [GBd]^cdD [C=EB]G [=CD^FA]2 |1 [B,DG]2 ^CD- D2 z2 :|2 %37
 [B,DG]2 z2 [GBdg]2 z2 ||[M:2/2]!f!"^TRIO." [Fcef]2 [_Gcef][=Gcef]- [Gcef][^Gcef][Acef][Bef] | %39
 [=Bef]2 cf z2 z2 |: F[cef][_Gcef][=Gcef]- [Gcef][cef]_A[cef] | %41
 =A[cef][dd'][cc']- [cc'][cef] F[cef] | F[Bdf][_GBdf][=GBdf]- [GBdf][Bdf]A[Bdf] | %43
 A[cf][cc'][Bb]- [Bb][df][Gg][B_d] | [Aea][_Ae_a][=Ae=a][cec']- [cec'][Geg] [Fef]2 | %45
 [Aea][_Ae_a][=Ae=a][Geg]- [Geg]g [e'g']2 | [Gdg][_Gd_g][=Gd=g][Bdb]- [Bdb][Gdg] [DBd]2 | %47
 [GBd]_G[=GBd]D- Df [d'f']2 | F[cef][_Gcef][=Gcef]- [Gcef][cef]_A[cef] | %49
 =A[cef][dd'][cc']- [cc'][cef] F[cef] | F[Bdf][_GBdf][=GBdf]- [GBdf][Bdf]A[Bdf] | %51
 A[cf][cc'][Bb]- [Bb][df][_A_a][df] | [Gd]_G=G[F=Be]- [FBe]d[FB]G | [=E_Bd]_d=dG- Gc g2 | %54
 F[cef][_Gcef][=Gcef]- [Gcef]A [dfd']2 |1 [Bdb]2 AG- GAG_G :|2 [Bdfb]2- [Bdfb]2 z2 z2 || %57
[K:G]!ff! _e2 d^c- cd_BA | G2 _ED z2 z2 | [=B,D]EGB z [^CG] [=CFA]2 | [B,G]2- [B,G]2 z2 z2 || %61
!mf! [dgbd'][egbe'][dgbd'][egbe']- [egbe'][dgbd'] [egbe']2 | Bb-ba gd B2 | %63
 [Begb][cegc'][Begb][cegc']- [cegc'][Begb] [cegc']2 | Ee-ed BG E2 | [DFB]E[Fc]D E[Fc]-[Fc]D | %66
 [Gd]ABG AB-BG | [^CGA]^GAe- e[F^d] [=GA^ce]2 | [A=cf][Ac=f]-[Acf][Ac^f] [Fcd]2 E2 | %69
 [dgbd'][egbe'][dgbd'][egbe']- [egbe'][dgbd'] [egbe']2 | Bb-ba gd B2 | %71
 [Begb][cegc'][Begb][cegc']- [cegc'][Begb] [cegc']2 | Ee-ed BG E2 | [DFB]E[Fc]D E[Fc]-[Fc]D | %74
 [Gd]ABG [^CA]B-BG | [B,G]ABG [^CA]B-B[=CF] | [B,DG]2 [dfd']2 [gbg']2 z2 |] %77
V:2
 G2 _ED- D^CDE | D2 _B,G, z2 z2 | [D,,D,]2 z2 [E,,E,]2 [F,,F,]2 | %3
 [G,,G,]2 [D,,D,]2 [G,,,G,,]2 z2 |: [G,,G,]2 [B,DG]2 [D,,D,]2 [B,DG]2 | %5
 [G,,G,]2 [B,DG]2 [D,,D,]2 [B,DG]2 | [G,,G,]2 [B,DG]2 [D,,D,]2 [B,DG]2 | %7
 [E,,E,]2 [G,B,E]2 [B,,,B,,]2 [G,B,E]2 | [A,,A,]2 [D,F,C]2 [D,,D,]2 [D,F,C]2 | %9
 [G,,G,]2 [D,G,B,]2 [D,,D,]2 [D,G,B,]2 | [E,,E,]2 [^C,G,A,]2 [A,,,A,,]2 [C,G,A,]2 | %11
 [D,,D,][_E,,_E,][=E,,=E,][=F,,=F,] [^F,,^F,]2 [D,,D,]2 | [G,,G,]2 [B,DG]2 [D,,D,]2 [B,DG]2 | %13
 [G,,G,]2 [B,DG]2 [D,,D,]2 [B,DG]2 | [G,,G,]2 [B,DG]2 [D,,D,]2 [B,DG]2 | %15
 [E,,E,]2 [G,B,E]2 [B,,,B,,]2 [G,B,E]2 | [A,,A,]2 [D,F,C]2 [D,,D,]2 [D,F,C]2 | %17
 [G,,G,]2 [D,G,B,]2 [E,,E,]2 [_E,,_E,]2 | [D,,D,]2 [D,G,B,]2 [E,,E,]2 [D,,D,]2 |1 %19
 [G,,G,]2 ^C,D,- D,G,A,B, :|2 [G,,G,]2 [D,,D,]2 [G,,,G,,]2 z2 |: %21
[K:Bb] [G,,G,]2 [G,B,D]2 [D,,D,]2 [G,B,D]2 | [G,,G,]2 [G,B,D]2 [D,,D,]2 [G,B,D]2 | %23
 [B,,F,]2 [F,B,D]2 [F,,D,]2 [F,B,D]2 | [B,,F,]2 [F,B,D]2 [A,,A,]2 [D,^F,A,C]2 | %25
 [G,,G,]2 [G,B,D]2 [D,,D,]2 [G,B,D]2 | [G,,G,]2 [G,B,D]2 [D,,D,]2 [G,B,D]2 | %27
 [=E,,=E,]2 [^C,G,A,]2 [A,,,A,,]2 [C,G,A,]2 | %28
 [D,,D,]2 [_E,,_E,][D,,D,]- [D,,D,][C,,C,][B,,,B,,][A,,,A,,] | %29
 [G,,G,]2 [G,B,D]2 [D,,D,]2 [G,B,D]2 | [G,,G,]2 [G,B,D]2 [D,,D,]2 [G,B,D]2 | %31
 [B,,F,]2 [F,B,D]2 [F,,D,]2 [F,B,D]2 | [B,,F,]2 [F,B,D]2 [A,,A,]2 [D,^F,A,C]2 | %33
 [G,,G,]2 [G,B,D]2 B,,2 [G,B,D]2 | [E,,E,]2 [G,CE]2 [C,,C,]2 [E,G,C]2 | %35
 [D,,D,]2 [G,B,D]2 [=E,,=E,]2 [^F,,^F,]2 |1 %36
 [G,,G,]2 [^C,,^C,][D,,D,]- [D,,D,][=C,,=C,][B,,,B,,][A,,,A,,] :|2 %37
 [G,,G,]2 [D,,D,]2 [G,,,G,,]2 z2 || %38
[M:2/2] [F,,F,]2 [_G,,_G,][=G,,=G,]- [G,,G,][^G,,^G,][A,,A,][B,,B,] | %39
 [=B,,=B,]2 [C,C]2 [F,F]2 z2 |: [F,,F,]2 [A,CEF]2 [C,,C,]2 [A,CEF]2 | %41
 [F,,F,]2 [_G,,_G,]2 [=G,,=G,]2 [A,,A,]2 | [B,,F,]2 [F,B,D]2 [F,,F,]2 [F,B,D]2 | %43
 [B,,B,]2 [C,C]2 [D,D]2 [_D,_D]2 | [C,C]2 [A,CEF]2 [F,,F,]2 [A,CE]2 | %45
 [C,C]2 [A,CEF]2 F,,2 [A,CEF]2 | B,,2 [F,B,D]2 F,,2 [F,B,]2 | [B,,G,]2 [F,B,D]2 F,,2 [F,B,]2 | %48
 [C,,C,]2 [A,CEF]2 [F,,F,]2 [A,CEF]2 | [F,,F,]2 [_G,,_G,]2 [=G,,=G,]2 [A,,A,]2 | %50
 [B,,F,]2 [F,B,D]2 [F,,F,]2 [F,B,D]2 | [B,,B,]2 [C,C]2 [D,D]2 [C,C]2 | %52
 [=B,,=B,]2 [G,B,DF]2 G,,2 [F,G,B,D]2 | [=E,,=E,]2 [G,B,C=E]2 [C,,C,]2 [G,B,CE]2 | %54
 [F,,F,]2 [A,CEF]2 [C,,C,]2 [A,CEF]2 |1 [B,,B,]2 [A,,A,][G,,G,]- [G,,G,][A,,A,][G,,G,][_G,,_G,] :|2 %56
 [B,,B,]2 [F,,F,]2 [B,,,B,,]2 z2 ||[K:G] _E2 D^C- CD_B,A, | G,2 _E,D, z2 z2 | %59
 [D,,D,]2 z2 [E,,E,]2 [F,,F,]2 | G,,2 [D,B,]2 D,,2 [D,B,]2 || [G,,G,]2 [B,DG]2 [D,,D,]2 [B,DG]2 | %62
 [G,,G,]2 [B,DG]2 [D,,D,]2 [B,DG]2 | [G,,G,]2 [B,DG]2 [D,,D,]2 [B,DG]2 | %64
 [E,,E,]2 [G,B,E]2 [B,,,B,,]2 [G,B,E]2 | [A,,A,]2 [D,F,C]2 [D,,D,]2 [D,F,C]2 | %66
 [G,,G,]2 [D,G,B,]2 [D,,D,]2 [D,G,B,]2 | [E,,E,]2 [^C,G,A,]2 [A,,,A,,]2 [C,G,A,]2 | %68
 [D,,D,][_E,,_E,][=E,,=E,][=F,,=F,] [^F,,^F,]2 [D,,D,]2 | [G,,G,]2 [B,DG]2 [D,,D,]2 [B,DG]2 | %70
 [G,,G,]2 [B,DG]2 [D,,D,]2 [B,DG]2 | [G,,G,]2 [B,DG]2 [D,,D,]2 [B,DG]2 | %72
 [E,,E,]2 [G,B,E]2 [B,,,B,,]2 [G,B,E]2 | [A,,A,]2 [D,F,C]2 [D,,D,]2 [D,F,C]2 | %74
 [G,,G,]2 [D,G,B,]2 [E,,E,]2 [_E,,_E,]2 | [D,,D,]2 [D,G,B,]2 [E,,E,]2 [D,,D,]2 | %76
 [G,,G,]2 [D,,D,]2 [G,,,G,,]2 z2 |] %77

